X: 38648
T: Stormy Ocean
R: jig
M: 6/8
K: Dmajor
|:BAG DEF|GBG FDD|BGD EFG|ADD D3|
BAG DEF|GBG FDD|BGD EFG|EDE E3:|
|:Bde fdB|cde aeA|BeB BAG|EFG BAG|
Bde fdB|cde aeA|BeB BAG|EDE E3:|

